packages/ui-icons/svg/Line/box.svg

<svg viewBox="0 0 1920 1920" version="1.1" xmlns="http://www.w3.org/2000/svg">
    <path d="M1468.23529,0 L1468.23529,112.941176 L451.764706,112.941176 L451.764706,0 L0,0 L0,451.877647 L112.941176,451.877647 L112.941176,1468.34824 L0,1468.34824 L0,1920 L451.764706,1920 L451.764706,1807.05882 L1468.23529,1807.05882 L1468.23529,1920 L1920.11294,1920 L1920.11294,1468.34824 L1807.17176,1468.34824 L1807.17176,451.877647 L1920.11294,451.877647 L1920.11294,0 L1468.23529,0 Z M1581.28941,338.823529 L1807.17176,338.823529 L1807.17176,112.941176 L1581.28941,112.941176 L1581.28941,338.823529 Z M112.941176,338.823529 L338.823529,338.823529 L338.823529,112.941176 L112.941176,112.941176 L112.941176,338.823529 Z M225.882353,451.877647 L451.764706,451.877647 L451.764706,225.882353 L1468.23529,225.882353 L1468.23529,451.877647 L1694.23059,451.877647 L1694.23059,1468.34824 L1468.23529,1468.34824 L1468.23529,1694.11765 L451.764706,1694.11765 L451.764706,1468.34824 L225.882353,1468.34824 L225.882353,451.877647 Z M1581.28941,1807.05882 L1807.17176,1807.05882 L1807.17176,1581.17647 L1581.28941,1581.17647 L1581.28941,1807.05882 Z M112.941176,1807.05882 L338.823529,1807.05882 L338.823529,1581.17647 L112.941176,1581.17647 L112.941176,1807.05882 Z" stroke="none" stroke-width="1" fill-rule="evenodd"/>
</svg>

<svg viewBox="0 0 1920 1920" version="1.1" xmlns="http://www.w3.org/2000/svg">
    <path d="M1468.235 0v112.941H451.765V0H0v451.878h112.941v1016.47H0V1920h451.765v-112.941h1016.47V1920h451.878v-451.652h-112.941V451.878h112.94V0h-451.877zm113.054 338.824h225.883V112.94h-225.883v225.883zm-1468.348 0h225.883V112.94H112.94v225.883zm112.941 113.054h225.883V225.882h1016.47v225.996h225.996v1016.47h-225.996v225.77H451.765v-225.77H225.882V451.878zm1355.407 1355.18h225.883v-225.882h-225.883v225.883zm-1468.348 0h225.883v-225.882H112.94v225.883z" stroke="none" stroke-width="1" fill-rule="evenodd"/>
</svg>
